X:1
T:Lloyd, CM
T:Lloyd, CM
T:Cuthbert Howard (1856-1927)
T:Public Domain Courtesy of the Cyber Hymnal™
C:Cuthbert Howard (1856-1927)
Z:Public Domain
Z:Courtesy of the Cyber Hymnal™
%%score ( 1 2 ) ( 3 4 )
L:1/8
Q:1/4=100
M:4/4
K:Eb
V:1 treble 
V:2 treble 
V:3 bass 
V:4 bass 
V:1
 [EG]2 [EG][DA] [EB]3 [B,E] | [B,D]2 [B,F]2 [B,E]4 | [EG]2 [EA][EB] [Ec]2 [EF]2 | %3
 [DF]4 [Fd]2 [Fc][FB] | [Ee]3 [EB] [EA]2 [DB]2 | [EG]4 [_DB]2 [CA][CF] | C2 [B,D]2 | [B,E]4 |] %8
V:2
 x8 | x8 | x8 | x8 | x8 | x8 | C2 x2 | x4 |] %8
V:3
 [E,B,]2 [E,B,][E,B,] [G,B,]3 [B,,G,] | [B,,F,]2 [B,,A,]2 [E,G,]4 | %2
 [E,B,]2 [F,B,][G,B,] A,2 [=A,C]2 | B,4 [A,B,]2 [A,B,][A,B,] | [G,B,]3 [G,B,] [F,C]2 [B,,B,]2 | %5
 [E,B,]4 [G,,F,]2 [A,,E,][A,,F,] | (A,G,) (F,A,) | [E,,E,G,]4 |] %8
V:4
 x8 | x8 | x4 =A,2 x2 | B,4 x4 | x8 | x8 | A,,2 B,,2 | x4 |] %8

